X: 119
T: The Perth Assembly
T: Reel, F
C: S. Duncan
L: 1/8
M: C|
K: F
|: B| A2cA B2dB| A2cA BGGB| A2cA Bcde| fcdB AFF:| 
g| a2fa g2eg| f2df e2ce| d2Bd c2Ac| BdcB AFF2| 
agfa gbeg| fedf eace| dcBd cBAc| dfeg aff2|| 
B: Sky Collection
D: Stephanie Wills, Tradition Continued, STEPH 1-94
D: Joe Cormier, Joseph Cormier and Friends, Rounder 7013
